site/static/img/icons-instagram.svg

<svg enable-background="new 0 0 32 32" height="32" viewBox="0 0 32 32" width="32" xmlns="http://www.w3.org/2000/svg"><path d="m28.2 0h-24.4c-2.1 0-3.8 1.7-3.8 3.8v24.4c0 2.1 1.7 3.8 3.8 3.8h24.4c2.1 0 3.8-1.7 3.8-3.8v-24.4c0-2.1-1.7-3.8-3.8-3.8zm-4.2 4h3c.6 0 1 .4 1 1v3c0 .6-.4 1-1 1h-3c-.6 0-1-.4-1-1v-3c0-.6.4-1 1-1zm-8 5.9c3.4 0 6.2 2.7 6.2 6.1s-2.8 6.1-6.2 6.1-6.2-2.7-6.2-6.1c.1-3.4 2.8-6.1 6.2-6.1zm12 19.1h-24c-.6 0-1-.4-1-1v-15h4c-.5.8-.7 2.1-.7 3 0 5.4 4.4 9.7 9.7 9.7 5.4 0 9.7-4.4 9.7-9.7 0-.9-.1-2.3-.8-3h4v15c.1.6-.3 1-.9 1z"/></svg>

<?xml version="1.0" encoding="utf-8"?>
<!-- Generator: Adobe Illustrator 18.1.1, SVG Export Plug-In . SVG Version: 6.00 Build 0)  -->
<!DOCTYPE svg PUBLIC "-//W3C//DTD SVG 1.1//EN" "http://www.w3.org/Graphics/SVG/1.1/DTD/svg11.dtd">
<svg version="1.1" id="Layer_1" xmlns="http://www.w3.org/2000/svg" xmlns:xlink="http://www.w3.org/1999/xlink" x="0px" y="0px"
	 width="32px" height="32px" viewBox="0 0 32 32" enable-background="new 0 0 32 32" xml:space="preserve">
<path d="M28.2,0H3.8C1.7,0,0,1.7,0,3.8v24.4C0,30.3,1.7,32,3.8,32h24.4c2.1,0,3.8-1.7,3.8-3.8V3.8
	C32,1.7,30.3,0,28.2,0z M24,4h3c0.6,0,1,0.4,1,1v3c0,0.6-0.4,1-1,1h-3c-0.6,0-1-0.4-1-1V5C23,4.4,23.4,4,24,4z M16,9.9
	c3.4,0,6.2,2.7,6.2,6.1c0,3.4-2.8,6.1-6.2,6.1c-3.4,0-6.2-2.7-6.2-6.1C9.9,12.6,12.6,9.9,16,9.9z M28,29H4c-0.6,0-1-0.4-1-1V13h4
	c-0.5,0.8-0.7,2.1-0.7,3c0,5.4,4.4,9.7,9.7,9.7c5.4,0,9.7-4.4,9.7-9.7c0-0.9-0.1-2.3-0.8-3h4v15C29,28.6,28.6,29,28,29z"/>
</svg>
